www/assets/icons/sort_by_alpha.svg

<svg width="24" height="24" viewBox="0 0 24 24" xmlns="http://www.w3.org/2000/svg" fill='currentColor'><path d="M15.215 4.6598H10.495L12.855 2.2998L15.215 4.6598ZM10.525 19.3698H15.185L12.855 21.6998L10.525 19.3698ZM6.375 6.2698L1.875 17.7298H3.715L4.635 15.2798H9.745L10.665 17.7298H12.505L8.015 6.2698H6.375ZM5.245 13.6398L7.185 8.4598L9.125 13.6398H5.245ZM16.005 16.1398H22.125V17.7298H13.595V16.4398L19.515 7.8798H13.635V6.2798H21.935V7.5398L16.005 16.1398Z"/></svg>

<svg xmlns="http://www.w3.org/2000/svg" width="24" height="24" viewBox="0 0 24 24" fill='currentColor'><path d="M15.215 4.66h-4.72l2.36-2.36zm-4.69 14.71h4.66l-2.33 2.33zm-4.15-13.1-4.5 11.46h1.84l.92-2.45h5.11l.92 2.45h1.84L8.015 6.27zm-1.13 7.37 1.94-5.18 1.94 5.18zm10.76 2.5h6.12v1.59h-8.53v-1.29l5.92-8.56h-5.88v-1.6h8.3v1.26z"/></svg>
